X: 1
T: Elg Anders G\aangl\aat
C: Av Anders Elgg\ard
C: arr. Sigmund Dehli
S: Printed MS of unknown origin (from Paul Milde)
M: 4/4
L: 1/8
K: G
GB |\
"G"d3(3(B/d/B/) GBdg | b2ba (3(gbg) d2 | "C"c2e2 e2dc | E6 DF |\
"D7"F3E DFAd | f2fe (3(ded) AB | c2D2 DFAF |1,3 "G"GDGB d2 :|2,4 "G"G6 :|
|: {^c}d2 |\
"G"d2ed B2dB | G2BG D2Bc | dedB GBdB | "D7"c6 AB |\
cdcB ABAG | FGFE D2AB | c2D2 DFAF |1,3 "G"GDGB d2 :|2,4 "G"G6 :|
